src/assets/images/header/icon-device-active.svg

<svg viewBox="0 0 36 36" fill="none" xmlns="http://www.w3.org/2000/svg">
<circle cx="18" cy="18" r="18" fill="#2036CA"/>
<path d="M26 21.2939V25.0586C26 25.3082 25.906 25.5481 25.7393 25.7246C25.5726 25.9008 25.3468 25.9999 25.1113 26H10.8887C10.6532 25.9999 10.4274 25.9008 10.2607 25.7246C10.094 25.5481 10 25.3082 10 25.0586V21.2939H26ZM13.5557 22.2354V24.1172H16.2227V22.2354H13.5557ZM26 20.3535H10V15.6475H26V20.3535ZM13.5557 18.9414H16.2227V17.0596H13.5557V18.9414ZM25.1113 10C25.3468 10.0001 25.5726 10.0992 25.7393 10.2754C25.906 10.4519 26 10.6918 26 10.9414V14.7061H10V10.9414C10 10.6918 10.094 10.4519 10.2607 10.2754C10.4274 10.0992 10.6532 10.0001 10.8887 10H25.1113ZM13.5557 13.7646H16.2227V11.8828H13.5557V13.7646Z" fill="white"/>
</svg>

<svg xmlns="http://www.w3.org/2000/svg" fill="none" viewBox="0 0 36 36"><circle cx="18" cy="18" r="18" fill="#2036ca"/><path fill="#fff" d="M26 21.294v3.765c0 .25-.094.49-.26.666a.87.87 0 0 1-.629.275H10.89a.87.87 0 0 1-.628-.275.97.97 0 0 1-.261-.666v-3.765zm-12.444.941v1.882h2.667v-1.882zM26 20.354H10v-4.706h16zM13.556 18.94h2.667V17.06h-2.667zM25.11 10c.236 0 .462.1.628.275.167.177.261.417.261.666v3.765H10v-3.765c0-.25.094-.49.26-.666A.87.87 0 0 1 10.89 10zm-11.555 3.765h2.667v-1.882h-2.667z"/></svg>
